X:49
T:Woo’d and married and a’. 2voices. Dix.49
M:9/8
L:1/8
Q:1/4=90
S:Anon. MS dated 1811, from Dixon collection, Holton le Moor, Lincs.
R:slip jig
N:Last bar altered. Ms gives final two bass clef notes as dotted
C:MS Attributes Gow
O:England;Lincolnshire;Holton le Moor
Z:vmp.R.Greig 2012 <http://www.village-music-project.org.uk>
K:F
[V:1]|:f|{d}c2B ABG F2B|(A/B/c).c cdAc2f|{d}c2B ABG FGA|D2d de^cd2:|!
[V:2]|:z|F,3C,3F,,3|A,,3F,3F,,3|F,3C,3F,,3|D,3A,,3D,,2:|!
[V:1]|:f|cde fgf edc|(B/c/c).c cdA”tr”c2d|cde fgf edc|A2 d- d.e.^c ~d2f|!
[V:2]|:z|F,3F,3C,3|A,,3F,3F,,3|F,3F,3E,3|D,3G,,3D,,3|!
[V:1]cde fga efg|A/B/cA fcAc2f|c>dB ABG FGA|D2d de=c d2:|
[V:2]F,,3F,3F,,3|F,3 C,3F,,3|F,3C,3F,2E,|D,3G,,3D,,2:|

